icons/calendar-date-16.svg

<svg
  xmlns="http://www.w3.org/2000/svg"
  viewBox="0 0 500 500"
  width="500"
  height="500"
  fill="#ffffff"
>
  <path d="M382.5 47.2h-16.7V5h-24.4v42.2H158.6V5h-24.4v42.2h-16.7a91.5 91.5 0 0 0-91.4 91.4v265a91.5 91.5 0 0 0 91.4 91.4h265a91.5 91.5 0 0 0 91.4-91.4v-265a91.5 91.5 0 0 0-91.4-91.4zm67 356.4a67.1 67.1 0 0 1-67 67h-265a67.1 67.1 0 0 1-67-67v-265c0-2.2.1-4.3.3-6.4h398.4c.2 2.1.3 4.2.3 6.4z" />
  <polygon
    data-name="1"
    points="119 215.7 124.4 236.9 160.1 217.6 160.8 217.6 160.8 397.3 187.6 397.3 187.6 191.6 163.9 191.6 119 215.7"
  />
  <path
    data-name="6"
    d="M338.2 261.9c-22.8 0-39.8 10.7-49.7 23.7h-.9c4.7-33.9 27.8-65.8 71.5-73.1a98.9 98.9 0 0 1 20.9-1.2v-22.8a130.6 130.6 0 0 0-20.3 1.6c-25.9 3.1-48.7 13.6-65.8 30.3-20.2 20.3-34.8 52.2-34.8 92.7 0 53.5 28.8 87.6 72.8 87.6s68.3-34.8 68.3-72.4c0-40.2-25.6-66.4-62-66.4zm-6.3 117.3c-29.1 0-44.6-25-45.2-58.8a23.3 23.3 0 0 1 3.1-12.3c7.6-14.9 23.1-25.4 39.9-25.4 25.6 0 42.4 17.8 42.4 47.2s-16.2 49.3-40.2 49.3z"
  />
</svg>

<svg xmlns="http://www.w3.org/2000/svg" viewBox="0 0 500 500">
  <g id="calendar-date-16">
    <path id="outline" d="M382.5,47.2H365.8V5H341.4V47.2H158.6V5H134.2V47.2H117.5a91.5,91.5,0,0,0-91.4,91.4v265A91.5,91.5,0,0,0,117.5,495h265a91.5,91.5,0,0,0,91.4-91.4v-265A91.5,91.5,0,0,0,382.5,47.2Zm67,356.4a67.1,67.1,0,0,1-67,67h-265a67.1,67.1,0,0,1-67-67v-265c0-2.2.1-4.3.3-6.4H449.2c.2,2.1.3,4.2.3,6.4Z"/>
    <polygon id="_1" data-name="1" points="119 215.7 124.4 236.9 160.1 217.6 160.8 217.6 160.8 397.3 187.6 397.3 187.6 191.6 163.9 191.6 119 215.7"/>
    <path id="_6" data-name="6" d="M338.2,261.9c-22.8,0-39.8,10.7-49.7,23.7h-.9c4.7-33.9,27.8-65.8,71.5-73.1a98.9,98.9,0,0,1,20.9-1.2V188.5a130.6,130.6,0,0,0-20.3,1.6c-25.9,3.1-48.7,13.6-65.8,30.3-20.2,20.3-34.8,52.2-34.8,92.7,0,53.5,28.8,87.6,72.8,87.6s68.3-34.8,68.3-72.4C400.2,288.1,374.6,261.9,338.2,261.9Zm-6.3,117.3c-29.1,0-44.6-25-45.2-58.8a23.3,23.3,0,0,1,3.1-12.3c7.6-14.9,23.1-25.4,39.9-25.4,25.6,0,42.4,17.8,42.4,47.2S355.9,379.2,331.9,379.2Z"/>
  </g>
</svg>
